X:1
T:Deck the Halls
M:2/4
L:1/8
K:G
d3c B2A2 | G2GA B2G2 | ABcA B3A | G2F2 G4 |
d3c B2A2 | G2GA B2G2 | ABcA B3A | G2F2 G4 |
A3B c2A2 | B3c d2A2 | Bcd2 efg2 | f2e2 d4 |
d3c B2A2 | G2GA B2G2 | ABcA B3A | G2F2 G4 |]
